svg/transport/baby_carriage_line.svg

<?xml version="1.0" encoding="UTF-8"?>
<svg width="24px" height="24px" viewBox="0 0 24 24" version="1.1" xmlns="http://www.w3.org/2000/svg" xmlns:xlink="http://www.w3.org/1999/xlink">
    <title>baby_carriage_line</title>
    <g id="Icon" stroke="none" stroke-width="1" fill="none" fill-rule="evenodd">
        <g id="Transport" transform="translate(-480.000000, 0.000000)">
            <g id="baby_carriage_line" transform="translate(480.000000, 0.000000)">
                <path d="M24,0 L24,24 L0,24 L0,0 L24,0 Z M12.5935,23.2578 L12.5819,23.2595 L12.5109,23.295 L12.4919,23.2987 L12.4767,23.295 L12.4057,23.2595 C12.3958,23.2564 12.387,23.259 12.3821,23.2649 L12.378,23.2758 L12.3609,23.7031 L12.3659,23.7235 L12.3769,23.7357 L12.4805,23.8097 L12.4953,23.8136 L12.5071,23.8097 L12.6107,23.7357 L12.6233,23.7197 L12.6267,23.7031 L12.6096,23.2758 C12.6076,23.2657 12.601,23.2593 12.5935,23.2578 Z M12.8584,23.1453 L12.8445,23.1473 L12.6598,23.2397 L12.6499,23.2499 L12.6472,23.2611 L12.6651,23.6906 L12.6699,23.7034 L12.6784,23.7105 L12.8793,23.8032 C12.8914,23.8069 12.9022,23.803 12.9078,23.7952 L12.9118,23.7812 L12.8777,23.1665 C12.8753,23.1546 12.8674,23.147 12.8584,23.1453 Z M12.143,23.1473 C12.1332,23.1424 12.1222,23.1453 12.1156,23.1526 L12.1099,23.1665 L12.0758,23.7812 C12.0751,23.7927 12.0828,23.8019 12.0926,23.8046 L12.1083,23.8032 L12.3092,23.7105 L12.3186,23.7024 L12.3225,23.6906 L12.3404,23.2611 L12.3372,23.2485 L12.3278,23.2397 L12.143,23.1473 Z" id="MingCute" fill-rule="nonzero"></path>
                <path d="M7.74618,2.60891 C8.46495647,2.33019941 9.2180582,2.65856315 9.56300381,3.26534577 L9.62279,3.3823 L12.6429,10.0001 L18.0000012,10.0001 L18.0000012,8.50009 C18.0000012,7.1745988 19.031547,6.0900507 20.3356267,6.00540764 L20.5000012,6.00009 L21.0000012,6.00009 C21.5523,6.00009 22.0000012,6.4478 22.0000012,7.00009 C22.0000012,7.51292143 21.6139731,7.93559653 21.116625,7.9933622 L21.0000012,8.00009 L20.5000012,8.00009 C20.2545779,8.00009 20.050401,8.17695914 20.0080583,8.41021236 L20.0000012,8.50009 L20.0000012,11.0001 C20.0000012,12.6599 19.541,14.2874 18.6738,15.7026 C18.3394,16.2483 17.9493,16.7542 17.5114,17.2131 C18.3883,17.6015 19.0000012,18.4794 19.0000012,19.5001 C19.0000012,20.8808 17.8807,22.0001 16.5000012,22.0001 C15.174528,22.0001 14.0899634,20.9685531 14.005319,19.6644744 L14.0000012,19.4854 C12.8165,19.9039 11.5541,20.0716 10.2939,19.9724 C9.63860833,19.9208167 8.99403889,19.7979139 8.37106551,19.6076269 L7.99996,19.4854 L8.00000125,19.5001 C8.00000125,20.8808 6.88071,22.0001 5.50000125,22.0001 C4.11929,22.0001 3.00000125,20.8808 3.00000125,19.5001 C3.00000125,18.4794 3.61173,17.6015 4.48857,17.2131 C3.72487,16.4127 3.112,15.4749 2.68509,14.4443 C2.04991,12.9108 1.85116,11.2316 2.11081,9.59223 C2.37046,7.95286 3.07839,6.41723 4.15635,5.15511 C5.12548,4.02041 6.35973,3.14652 7.74618,2.60891 Z M5.5,19.0001 C5.22386,19.0001 5,19.2239 5,19.5001 C5,19.7762 5.22386,20.0001 5.5,20.0001 C5.77614,20.0001 6,19.7762 6,19.5001 C6,19.2239 5.77614,19.0001 5.5,19.0001 Z M16.5,19.0001 C16.2239,19.0001 16,19.2239 16,19.5001 C16,19.7762 16.2239,20.0001 16.5,20.0001 C16.7761,20.0001 17,19.7762 17,19.5001 C17,19.2239 16.7761,19.0001 16.5,19.0001 Z M17.9282,12.0001 L4.07179,12.0001 C4.15463,12.574 4.30885,13.1381 4.53285,13.6789 C5.02688,14.8716 5.8411,15.9045 6.88551,16.6633 C7.92991,17.4221 9.16381,17.8773 10.4508,17.9786 C11.7378,18.0798 13.0277,17.8233 14.1779,17.2372 C15.3282,16.6511 16.294,15.7584 16.9685,14.6576 C17.4675,13.8433 17.7928,12.9386 17.9282,12.0001 Z M8.01198,4.66991 C7.11927,5.09129 6.32261,5.69828 5.67716,6.454 C4.88404308,7.38263385 4.34816639,8.50369941 4.12189691,9.69962662 L4.07181,10.0001 L10.4444,10.0001 L8.01198,4.66991 Z" id="形状" fill="#09244B"></path>
            </g>
        </g>
    </g>
</svg>

<svg xmlns="http://www.w3.org/2000/svg" width="24" height="24"><g fill="none" fill-rule="evenodd"><path d="M24 0v24H0V0h24ZM12.594 23.258l-.012.002-.071.035-.02.004-.014-.004-.071-.036c-.01-.003-.019 0-.024.006l-.004.01-.017.428.005.02.01.013.104.074.015.004.012-.004.104-.074.012-.016.004-.017-.017-.427c-.002-.01-.009-.017-.016-.018Zm.264-.113-.014.002-.184.093-.01.01-.003.011.018.43.005.012.008.008.201.092c.012.004.023 0 .029-.008l.004-.014-.034-.614c-.003-.012-.01-.02-.02-.022Zm-.715.002a.023.023 0 0 0-.027.006l-.006.014-.034.614c0 .012.007.02.017.024l.015-.002.201-.093.01-.008.003-.011.018-.43-.003-.012-.01-.01-.184-.092Z"/><path fill="#09244B" d="M7.746 2.609a1.476 1.476 0 0 1 1.817.656l.06.117L12.643 10H18V8.5a2.5 2.5 0 0 1 2.336-2.495L20.5 6h.5a1 1 0 0 1 .117 1.993L21 8h-.5a.5.5 0 0 0-.492.41L20 8.5V11a9 9 0 0 1-2.489 6.213 2.5 2.5 0 1 1-3.506 2.451L14 19.485a8.999 8.999 0 0 1-5.629.123L8 19.485v.015a2.5 2.5 0 1 1-3.511-2.287A9 9 0 0 1 7.746 2.61ZM5.5 19a.5.5 0 1 0 0 1 .5.5 0 0 0 0-1Zm11 0a.5.5 0 1 0 0 1 .5.5 0 0 0 0-1Zm1.428-7H4.072a7 7 0 0 0 13.856 0ZM8.012 4.67a7 7 0 0 0-3.89 5.03l-.05.3h6.372L8.012 4.67Z"/></g></svg>
